Newaita/actions/22/im-user-away.svg

<svg height="22" viewBox="0 0 22 22" width="22" xmlns="http://www.w3.org/2000/svg"><g fill="#424242"><path d="m10.914062 1.992188c-2.519531 0-4.546874 2.027343-4.546874 4.546874 0 2.519532 2.027343 4.546876 4.546874 4.546876 2.519532 0 4.550782-2.027344 4.550782-4.546876 0-2.519531-2.03125-4.546874-4.550782-4.546874zm0 1.816406c1.511719 0 2.730469 1.21875 2.730469 2.730468 0 1.511719-1.21875 2.730469-2.730469 2.730469-1.511718 0-2.726562-1.21875-2.726562-2.730469 0-1.511718 1.214844-2.730468 2.726562-2.730468zm0 0"/><path d="m7.726562 11.546875c-.089843 0-.183593.015625-.269531.042969-.605469.191406-1.703125.425781-2.710937.964844-1.007813.542968-2.011719 1.582031-2.011719 3.082031v1.363281h-.003906v1.363281c0 1.007813.808593 1.820313 1.816406 1.820313h7.050781v-1.820313h-6.140625c-.503906 0-.910156-.40625-.910156-.910156v-.453125h-.003906v-1.363281c0-.777344.359375-1.113281 1.058593-1.484375.613282-.332032 1.40625-.539063 2.109376-.75 2.195312.808594 4.214843.808594 6.410156 0 .699218.203125 1.492187.410156 2.105468.742187.34375.183594.601563.359375.78125.582031h1.957032c-.300782-1.019531-1.089844-1.75-1.878906-2.175781-1.007813-.542969-2.105469-.777343-2.722657-.964843-.085937-.027344-.175781-.039063-.265625-.039063-.117187 0-.230468.019531-.335937.0625-2.117188.847656-3.574219.847656-5.695313 0-.109375-.042969-.222656-.0625-.339844-.0625zm0 0"/><path d="m16.828125 17v1.820312h-3.671875c-.253906 0-.457031-.203124-.457031-.457031v-.910156c0-.25.203125-.453125.457031-.453125zm0 0"/><path d="m16.371094 20.183594v-4.546875l3.640625 2.273437zm0 0"/></g></svg>

<?xml version="1.0" encoding="UTF-8"?>
<svg xmlns="http://www.w3.org/2000/svg" xmlns:xlink="http://www.w3.org/1999/xlink" width="22px" height="22px" viewBox="0 0 22 22" version="1.1">
<g id="surface1">
<path style=" stroke:none;fill-rule:nonzero;fill:rgb(25.882354%,25.882354%,25.882354%);fill-opacity:1;" d="M 10.914062 1.992188 C 8.394531 1.992188 6.367188 4.019531 6.367188 6.539062 C 6.367188 9.058594 8.394531 11.085938 10.914062 11.085938 C 13.433594 11.085938 15.464844 9.058594 15.464844 6.539062 C 15.464844 4.019531 13.433594 1.992188 10.914062 1.992188 Z M 10.914062 3.808594 C 12.425781 3.808594 13.644531 5.027344 13.644531 6.539062 C 13.644531 8.050781 12.425781 9.269531 10.914062 9.269531 C 9.402344 9.269531 8.1875 8.050781 8.1875 6.539062 C 8.1875 5.027344 9.402344 3.808594 10.914062 3.808594 Z M 10.914062 3.808594 "/>
<path style=" stroke:none;fill-rule:nonzero;fill:rgb(25.882354%,25.882354%,25.882354%);fill-opacity:1;" d="M 7.726562 11.546875 C 7.636719 11.546875 7.542969 11.5625 7.457031 11.589844 C 6.851562 11.78125 5.753906 12.015625 4.746094 12.554688 C 3.738281 13.097656 2.734375 14.136719 2.734375 15.636719 L 2.734375 17 L 2.730469 17 L 2.730469 18.363281 C 2.730469 19.371094 3.539062 20.183594 4.546875 20.183594 L 11.597656 20.183594 L 11.597656 18.363281 L 5.457031 18.363281 C 4.953125 18.363281 4.546875 17.957031 4.546875 17.453125 L 4.546875 17 L 4.542969 17 L 4.542969 15.636719 C 4.542969 14.859375 4.902344 14.523438 5.601562 14.152344 C 6.214844 13.820312 7.007812 13.613281 7.710938 13.402344 C 9.90625 14.210938 11.925781 14.210938 14.121094 13.402344 C 14.820312 13.605469 15.613281 13.8125 16.226562 14.144531 C 16.570312 14.328125 16.828125 14.503906 17.007812 14.726562 L 18.964844 14.726562 C 18.664062 13.707031 17.875 12.976562 17.085938 12.550781 C 16.078125 12.007812 14.980469 11.773438 14.363281 11.585938 C 14.277344 11.558594 14.1875 11.546875 14.097656 11.546875 C 13.980469 11.546875 13.867188 11.566406 13.761719 11.609375 C 11.644531 12.457031 10.1875 12.457031 8.066406 11.609375 C 7.957031 11.566406 7.84375 11.546875 7.726562 11.546875 Z M 7.726562 11.546875 "/>
<path style=" stroke:none;fill-rule:nonzero;fill:rgb(25.882354%,25.882354%,25.882354%);fill-opacity:1;" d="M 16.828125 17 L 16.828125 18.820312 L 13.15625 18.820312 C 12.902344 18.820312 12.699219 18.617188 12.699219 18.363281 L 12.699219 17.453125 C 12.699219 17.203125 12.902344 17 13.15625 17 Z M 16.828125 17 "/>
<path style=" stroke:none;fill-rule:nonzero;fill:rgb(25.882354%,25.882354%,25.882354%);fill-opacity:1;" d="M 16.371094 20.183594 L 16.371094 15.636719 L 20.011719 17.910156 Z M 16.371094 20.183594 "/>
</g>
</svg>
